img/icones/estrela.svg

<svg width="24" height="24" viewBox="0 0 24 24" fill="none" xmlns="http://www.w3.org/2000/svg">
<g clip-path="url(#clip0_82_80)">
<path d="M22.425 9.13125C22.3311 8.83592 22.1502 8.57585 21.906 8.38513C21.6617 8.19441 21.3655 8.08195 21.0563 8.0625L15.4875 7.67813L13.425 2.475C13.3124 2.1885 13.1164 1.94241 12.8623 1.76858C12.6082 1.59475 12.3078 1.50118 12 1.5C11.6922 1.50118 11.3918 1.59475 11.1377 1.76858C10.8837 1.94241 10.6876 2.1885 10.575 2.475L8.475 7.70625L2.94375 8.0625C2.63485 8.08321 2.33927 8.19614 2.09525 8.38668C1.85123 8.57722 1.67 8.83659 1.575 9.13125C1.47745 9.43043 1.47175 9.75197 1.55864 10.0544C1.64553 10.3569 1.82103 10.6263 2.0625 10.8281L6.31875 14.4281L5.05313 19.4062C4.96556 19.743 4.98132 20.0983 5.09836 20.426C5.21539 20.7537 5.42829 21.0386 5.70938 21.2438C5.98222 21.4396 6.30729 21.5495 6.64298 21.5596C6.97867 21.5696 7.30972 21.4792 7.59375 21.3L11.9906 18.5156H12.0094L16.7438 21.5062C16.9866 21.6641 17.2697 21.7487 17.5594 21.75C17.7959 21.7481 18.0288 21.6921 18.2402 21.5861C18.4516 21.4802 18.636 21.3272 18.779 21.1389C18.9221 20.9505 19.02 20.7319 19.0654 20.4998C19.1107 20.2677 19.1023 20.0283 19.0406 19.8L17.7 14.3531L21.9375 10.8281C22.179 10.6263 22.3545 10.3569 22.4414 10.0544C22.5283 9.75197 22.5226 9.43043 22.425 9.13125Z" fill="#141414"/>
</g>
<defs>
<clipPath id="clip0_82_80">
<rect width="24" height="24" fill="white"/>
</clipPath>
</defs>
</svg>

<svg width="24" height="24" fill="none" xmlns="http://www.w3.org/2000/svg"><g clip-path="url(#a)"><path d="M22.425 9.131a1.538 1.538 0 0 0-1.369-1.069l-5.569-.384-2.062-5.203A1.537 1.537 0 0 0 12 1.5a1.538 1.538 0 0 0-1.425.975l-2.1 5.231-5.531.356a1.547 1.547 0 0 0-1.369 1.07 1.575 1.575 0 0 0 .488 1.696l4.256 3.6-1.266 4.978a1.734 1.734 0 0 0 .656 1.838 1.688 1.688 0 0 0 1.885.056l4.397-2.784h.018l4.735 2.99c.243.158.526.243.815.244a1.546 1.546 0 0 0 1.482-1.95L17.7 14.353l4.238-3.525a1.575 1.575 0 0 0 .487-1.697Z" fill="#141414"/></g><defs><clipPath id="a"><path fill="#fff" d="M0 0h24v24H0z"/></clipPath></defs></svg>
